!!!OTL@@DE: Wenn i h&aring;ld frua afsteh
!!!COM: Oesterreichisches Volkslied
!!!ODT: 1849
!!!OMD: M&auml;ssig geschwind
!!!OCL: Erk, Ludwig
!!!GCO: Deutscher Liederschatz, Band 1
**kern	**kern	**kern
*staff3	*staff2	*staff1
*Ipiano	*Ipiano	*Ivox
*>[A,B,B]	*>[A,B,B]	*>[A,B,B]
*>norep[A,B]	*>norep[A,B]	*>norep[A,B]
*>A	*>A	*>A
=1-	=1-	=1-
*clefF4	*clefG2	*clefG2
*k[f#]	*k[f#]	*k[f#]
*G:	*G:	*G:
*M3/4	*M3/4	*M3/4
*MM86	*MM86	*MM86
4GG/	4B/ 4d/ 4g/	4g/
4G\	(8b/L	8b/L
.	8d/J)	8d/J
4D\	8g/L	8g/L
.	8b/J	8b/J
=2	=2	=2
(4B\	4dd\	4dd\
4D\	(8gg\L	8gg\L
.	8g\J)	8g\J
4G\)	4b\	4b\
=3	=3	=3
4F#\	4a/	4a/
4D\	(8cc/L	8cc/L
.	8d/J)	8d/J
4A\ 4c\	4f#/	4f#/
=4	=4	=4
4G\ 4B\	4g/	4g/
4D\	(8b/L	8b/L
.	8d/J)	8d/J
4G\ 4B\	4g/	4g/
=5	=5	=5
4GGG/ 4GG/	4B/ 4d/ 4g/	4g/
4GG/	(8b/L	8b/L
.	8d/J)	8d/J
4G\	(8g/L	8g/L
.	8b/J)	8b/J
=6	=6	=6
4B\	4dd\	4dd\
*^	*	*
2d;/	4B\	(8gg\L	8gg\L
.	.	8g\J)	8g\J
.	4G;\	4b;\	4b;\
*v	*v	*	*
=7!|:	=7!|:	=7!|:
*>B	*>B	*>B
4D\	4f#/ 4a/	4a/
4d\	8a'/ 8cc'/L	8cc\
.	8a'/ 8cc'/J	8cc\
4D\	4f#/ 4a/	4a/
=8	=8	=8
*^	*	*
4B/	2.G\	4g/	4g/
4d/	.	8b'\L	8b\
.	.	8b'\J	8b\
4B/	.	4g/	4g/
*v	*v	*	*
=9	=9	=9
4D\	4f#/ 4a/	4a/
4d\	8a'/ 8cc'/L	8cc\
.	8a'/ 8cc'/J	8cc\
4D\	4f#/ 4a/	4a/
=10	=10	=10
*^	*	*
4B/	2.G\	4g/	4g/
4d/	.	8b'\L	8b\
.	.	8b'\J	8b\
4B/	.	4g/	4g/
*v	*v	*	*
=11	=11	=11
4D\	4f#/ 4a/	4a/
4d\	8a'/ 8cc'/L	8cc\
.	8a'/ 8cc'/J	8cc\
4D\	4f#/ 4a/	4a/
=12	=12	=12
(8GG\L	2g/ 2b/	2b\
8BB\	.	.
8D\	.	.
8G\	.	.
8B\	8dd'\L	8dd\
8d\J)	8dd'\J	8dd\
=13	=13	=13
4D\	4g\ 4b\ 4gg\	4gg\
*^	*^	*
(8B/L	4D\	(8dd/L	4g\	8dd\
8G/	.	8b/J	.	8b\
8A/	4D\	(8cc/L)	4f#\	8cc\L
8c/J)	.	8a/J)	.	8a\J
*	*	*v	*v	*
=14	=14	=14	=14
4G\	2B/	2d/ 2g/	2g/
4GG	.	.	.
*v	*v	*	*
4r	4r	4r
==:|!	==:|!	==:|!
*-	*-	*-
!!!ENC: Craig Stuart Sapp
!!!END: 2004/06/06/
!!!EFL: 108/651
